dist/images/icons/case_white.svg

<svg width="13" height="12" viewBox="0 0 13 12" fill="none" xmlns="http://www.w3.org/2000/svg">
<path fill-rule="evenodd" clip-rule="evenodd" d="M5.25 5.5C5.25 5.22386 5.47386 5 5.75 5H7.25C7.52614 5 7.75 5.22386 7.75 5.5C7.75 5.77614 7.52614 6 7.25 6H5.75C5.47386 6 5.25 5.77614 5.25 5.5Z" fill="white"/>
<path fill-rule="evenodd" clip-rule="evenodd" d="M12.933 5.64422C13.0713 5.88324 12.9896 6.18911 12.7506 6.3274C10.8509 7.42647 8.69436 8.0036 6.49967 8.00029C4.30536 8.0036 2.14918 7.42666 0.249731 6.32795C0.0106968 6.18969 -0.0709917 5.88382 0.0672741 5.64479C0.20554 5.40576 0.511402 5.32407 0.750436 5.46233C2.49746 6.47288 4.48065 7.00347 6.49889 7.00029H6.50046C8.51904 7.00347 10.5026 6.4727 12.2498 5.46183C12.4888 5.32354 12.7947 5.4052 12.933 5.64422Z" fill="white"/>
<path fill-rule="evenodd" clip-rule="evenodd" d="M3.93934 0.43934C4.22064 0.158035 4.60218 0 5 0H8C8.39782 0 8.77936 0.158035 9.06066 0.43934C9.34196 0.720644 9.5 1.10218 9.5 1.5V2.5C9.5 2.77614 9.27614 3 9 3C8.72386 3 8.5 2.77614 8.5 2.5V1.5C8.5 1.36739 8.44732 1.24021 8.35355 1.14645C8.25979 1.05268 8.13261 1 8 1H5C4.86739 1 4.74022 1.05268 4.64645 1.14645C4.55268 1.24021 4.5 1.36739 4.5 1.5V2.5C4.5 2.77614 4.27614 3 4 3C3.72386 3 3.5 2.77614 3.5 2.5V1.5C3.5 1.10218 3.65804 0.720644 3.93934 0.43934Z" fill="white"/>
<path fill-rule="evenodd" clip-rule="evenodd" d="M0 3C0 2.44772 0.447715 2 1 2H12C12.5523 2 13 2.44772 13 3V11C13 11.5523 12.5523 12 12 12H1C0.447715 12 0 11.5523 0 11V3ZM12 3H1V11H12V3Z" fill="white"/>
<path opacity="0.36" d="M6.49951 7.50021C4.39313 7.50352 2.32333 6.94977 0.5 5.89511V11.0002C0.499999 11.0659 0.512932 11.1309 0.538059 11.1916C0.563186 11.2522 0.600016 11.3073 0.646446 11.3538C0.692875 11.4002 0.747995 11.437 0.808658 11.4622C0.869321 11.4873 0.934339 11.5002 1 11.5002H12C12.0657 11.5002 12.1307 11.4873 12.1913 11.4622C12.252 11.437 12.3071 11.4002 12.3536 11.3538C12.4 11.3073 12.4368 11.2522 12.4619 11.1916C12.4871 11.1309 12.5 11.0659 12.5 11.0002V5.89453C10.6764 6.94957 8.60628 7.50353 6.49951 7.50021V7.50021Z" fill="white"/>
</svg>

<svg width="13" height="12" fill="none" xmlns="http://www.w3.org/2000/svg"><path fill-rule="evenodd" clip-rule="evenodd" d="M5.25 5.5a.5.5 0 01.5-.5h1.5a.5.5 0 010 1h-1.5a.5.5 0 01-.5-.5z" fill="#fff"/><path fill-rule="evenodd" clip-rule="evenodd" d="M12.933 5.644a.5.5 0 01-.182.683A12.445 12.445 0 016.5 8 12.445 12.445 0 01.25 6.328a.5.5 0 11.5-.866A11.445 11.445 0 006.5 7a11.445 11.445 0 005.75-1.538.5.5 0 01.683.182zM3.94.44A1.5 1.5 0 015 0h3a1.5 1.5 0 011.5 1.5v1a.5.5 0 01-1 0v-1A.5.5 0 008 1H5a.5.5 0 00-.5.5v1a.5.5 0 01-1 0v-1c0-.398.158-.78.44-1.06z" fill="#fff"/><path fill-rule="evenodd" clip-rule="evenodd" d="M0 3a1 1 0 011-1h11a1 1 0 011 1v8a1 1 0 01-1 1H1a1 1 0 01-1-1V3zm12 0H1v8h11V3z" fill="#fff"/><path opacity=".36" d="M6.5 7.5a11.945 11.945 0 01-6-1.605V11a.5.5 0 00.5.5h11a.5.5 0 00.5-.5V5.895a11.945 11.945 0 01-6 1.605z" fill="#fff"/></svg>
